!!!!SEGMENT: pl-wru--50044-muz--017_buchner-philipp-friedrich--plectrum-musicum-sonata-xvii.krn
!!!cenid: 16xx:1818
!!!COM: Buchner, Philipp Friedrich
!!!COM-rismID: pe30013776
!!!CDT:
!!!CNT:
!!!GTL: Plectrum musicum
!!!OTL: Sonata XVII
!!!OMV: 017
!!!PDT: 1662
!!!AGN:
!!!SMS-siglum: PL-WRu
!!!SMS-shelfmark: 50044 Muz.
!!!SMS-shelfwork: 001-017 G
!!!SMS-variant:
!!!SMS-altvar:
!!!NIFC-rismSourceID: 990007465
!!!NIFC-rismChildID: 990007465
!!!NIFC-islandoraID: none
!!!URL-pdf-islandora:
!!!URL-scan: https://www.bibliotekacyfrowa.pl/dlibra/doccontent?id=116 @EN{Scan on Digital Library of University of Wroclaw} @PL{Skany w portalu Biblioteka Cyfrowa Uniwersytetu Wrocławskiego}
!!!ONB-nifc: UWAGA: Violino I: s. 15-16 , Violino II: s. 29-30, Fagotto: s. 60-61, Bassus: s. 75, Bassus continuus: s. 90
!!!AIN: 1 fagot 2 violn
!!!key: a
**kern	**fba	**kern	**fba	**kern	**kern	**kern
*part5	*part5	*part4	*part4	*part2	*part1	*part3
*staff5	*	*staff4	*	*staff2	*staff1	*staff3
*I"BASSUS CONTINUUS	*	*I"BASSVS	*	*I"VIOLINO II.	*I"VIOLINO I.	*I"FAGOTTO
*I'bc	*	*I'b	*	*I'vl 2	*I'vl 1	*I'fag
*	*	*	*	*ICstr	*ICstr	*ICww
*	*	*	*	*Ivioln	*Ivioln	*Ifagot
*IGcont	*	*IGcont	*	*	*	*
*clefF4	*	*clefF4	*	*clefG2	*clefG2	*clefF4
*k[]	*	*k[]	*	*k[]	*k[]	*k[]
*a:	*	*a:	*	*a:	*a:	*a:
*M2/2	*	*M2/2	*	*M2/2	*M2/2	*M2/2
*met(C|)	*	*met(C|)	*	*met(C|)	*met(C|)	*met(C|)
=1-	=1-	=1-	=1-	=1-	=1-	=1-
!LO:TX:a:t=Sonata XVII.	!	!LO:TX:a:t=Sonata XVII.	!	!LO:TX:a:t=Sonata XVII.	!LO:TX:a:t=Sonata XVII.	!LO:TX:a:t=Sonata XVII.
!LO:TX:b:t=Adagio.	!	!LO:TX:b:t=Adagio.	!	!	!LO:TX:b:t=adagio.	!LO:TX:b:t=Adagio.
1AA	.	1AA	.	2r	1r	2.AA/
!	!	!	!	!LO:TX:b:t=Adagio.	!	!
.	.	.	.	2.ee\	.	.
.	.	.	.	.	.	4AA/
=2-	=2-	=2-	=2-	=2-	=2-	=2-
1D	9:8	1D	9:8	.	2.ff\	1D
.	.	.	.	4ee\	.	.
.	.	.	.	1dd	.	.
.	.	.	.	.	4ff\	.
=3-	=3-	=3-	=3-	=3-	=3-	=3-
2.E\	7:6	2.E\	7:6	.	1ee	2.E\
!	!	!	!	!LO:TX:t=P:problem:kreska pseudotaktowa	!	!
.	.	.	.	2.cc\	.	.
8A\	.	8A\	.	.	.	8A\
!LO:TX:t=P:problem:kreska pseudotaktowa	!	!LO:TX:t=P:problem:kreska pseudotaktowa	!	!	!	!
8G\	.	8G\	.	.	.	8G\
=4-	=4-	=4-	=4-	=4-	=4-	=4-
2F#X\	6 5	2F#X\	6 5	.	2.dd\	2F#X\
.	.	.	.	8dd\	.	.
.	.	.	.	8cc\	.	.
2G\	5:6	2G\	5:6	1b	.	2G\
.	.	.	.	.	8ee\	.
.	.	.	.	.	8dd\	.
=5-	=5-	=5-	=5-	=5-	=5-	=5-
2.C/	7:6	2.C/	7:6	.	1cc	2.C/
.	.	.	.	1a	.	.
4D/	.	4D/	.	.	.	4D/
=6-	=6-	=6-	=6-	=6-	=6-	=6-
1E	5 4#r	1E	5 4#r	.	1b	1E
.	.	.	.	2g#X/	.	.
=7-	=7-	=7-	=7-	=7-	=7-	=7-
!LO:TX:t=P:problem:kreska pseudotaktowa	!	!LO:TX:t=P:problem:kreska pseudotaktowa	!	!LO:TX:t=P:problem:kreska pseudotaktowa	!LO:TX:t=P:problem:kreska pseudotaktowa	!LO:TX:t=P:problem:kreska pseudotaktowa
1AA	.	1AA	.	1a	1a	1AA
=8-	=8-	=8-	=8-	=8-	=8-	=8-
!LO:TX:b:t=allegro.	!	!LO:TX:b:t=allegro.	!	!LO:TX:b:t=allegro.	!LO:TX:b:t=allegro.	!
4Fny\	.	4Fny\	.	1r	0r	8r
!	!	!	!	!	!	!LO:TX:b:t=Allegro.
.	.	.	.	.	.	16A\
.	.	.	.	.	.	16B\
4E\	.	4E\	.	.	.	8c\
.	.	.	.	.	.	8E\
4D/	.	4D/	.	.	.	8Fny\
.	.	.	.	.	.	16E\
.	.	.	.	.	.	16F\
4BB/	.	4BB/	.	.	.	8G\
!	!	!	!	!	!	!LO:TX:t=P:problem:kreska pseudotaktowa
.	.	.	.	.	.	8BB/
=9-	=9-	=9-	=9-	=9-	=9-	=9-
4.C/	.	4.C/	.	2r	.	8C/
.	.	.	.	.	.	8C/
.	.	.	.	.	.	8E\
8G\	.	8G\	.	.	.	8G\
4A\	.	4A\	.	8r	.	8A\
.	.	.	.	16ee\	.	8A\
.	.	.	.	16ff\	.	.
!LO:TX:t=P:problem:kreska pseudotaktowa	!	!LO:TX:t=P:problem:kreska pseudotaktowa	!	!	!	!
4G\	.	4G\	.	8gg\	.	4G\
!	!	!	!	!LO:TX:t=P:problem:kreska pseudotaktowa	!	!
.	.	.	.	8b/	.	.
=10-	=10-	=10-	=10-	=10-	=10-	=10-
4F\	.	4F\	.	8cc\	1r	4F\
.	.	.	.	16b/	.	.
.	.	.	.	16cc\	.	.
4D/	6	4D/	6	8dd\	.	4r
.	.	.	.	8f#X/	.	.
4E\	.	4E\	.	8gny/	.	8r
.	.	.	.	8g/	.	8E\
!	!	!	!	!	!	!LO:TX:t=P:problem:kreska pseudotaktowa
4D/	.	4D/	.	8b/	.	4D/
!	!	!	!	!LO:TX:t=P:problem:kreska pseudotaktowa	!	!
.	.	.	.	8dd\	.	.
=11-	=11-	=11-	=11-	=11-	=11-	=11-
8C/	.	8C/	.	8ee\	2r	8C/
8c\	.	8c\	.	8ee\	.	8c\
4B\	.	4B\	.	4dd\	.	4B\
4.A\	.	4.A\	.	8cc\	8r	4.A\
.	.	.	.	16cc\	16aa\	.
.	.	.	.	16dd\	16bb\	.
.	.	.	.	8ee\	8ccc\	.
8G\	6	8G\	6	8g/	8ee\	8G\
*	*	*	*	*custos:a	*	*custos:F
!	!	!	!	!LO:LB:g=original	!	!LO:LB:g=original
=12-	=12-	=12-	=12-	=12-	=12-	=12-
4F\	.	4F\	.	8a/	8ff\	4F\
.	.	.	.	16g/	16ee\	.
.	.	.	.	16a/	16ff\	.
8E\	.	8E\	.	8b/	8gg\	8E\
8D/	6	8D/	6	8d/	8b/	8D/
4.C/	.	4.C/	.	8e/	8cc\	4C/
.	.	.	.	8e/	8cc\	.
!	!	!	!	!	!	!LO:TX:t=P:problem:kreska pseudotaktowa
.	.	.	.	8g/	8ee\	4r
!LO:TX:t=P:problem:kreska pseudotaktowa	!	!LO:TX:t=P:problem:kreska pseudotaktowa	!	!LO:TX:t=P:problem:kreska pseudotaktowa	!LO:TX:t=P:problem:kreska pseudotaktowa	!
8BB/	6	8BB/	6	8b/	8gg\	.
=13-	=13-	=13-	=13-	=13-	=13-	=13-
4AA/	.	4AA/	.	4cc\	8aa\	8r
.	.	.	.	.	8aa\	8AA/
8C/	.	8C/	.	4r	4gg\	8C/
8E\	.	8E\	.	.	.	8E\
*custos:F	*	*custos:F	*	*	*	*
!LO:LB:g=original	!	!LO:LB:g=original	!	!	!	!
4F\	.	4F\	.	8r	8ff\	8F\
.	.	.	.	8cc\	8a/	8F\
4E\	.	4E\	.	8ee\	8cc\	4E\
!	!	!	!	!LO:TX:t=P:problem:kreska pseudotaktowa	!LO:TX:t=P:problem:kreska pseudotaktowa	!
.	.	.	.	8gg\	8ee\	.
=14-	=14-	=14-	=14-	=14-	=14-	=14-
4D/	.	4D/	.	8aa\	8ff\	4D/
.	.	.	.	16aa\	8ff\	.
.	.	.	.	16bb\	.	.
4C/	.	4C/	.	8ccc\	4ee\	4r
.	.	.	.	8ee\	.	.
!	!	!	!	!	!	!LO:TX:t=P:problem:kreska pseudotaktowa
4D/	-	4D/	-	8ff\	4dd\	2r
.	.	.	.	16ee\	.	.
.	.	.	.	16ff\	.	.
!	!	!	!	!	!LO:TX:t=P:problem:kreska pseudotaktowa	!
!LO:TX:t=P:problem:kreska pseudotaktowa	!	!LO:TX:t=P:problem:kreska pseudotaktowa	!	!	!	!
4E\	-	4E\	-	8gg\	4r	.
!	!	!	!	!LO:TX:t=P:problem:kreska pseudotaktowa	!	!
.	.	.	.	8b/	.	.
*	*	*	*	*	*custos:cc	*
!	!	!	!	!	!LO:LB:g=original	!
=15-	=15-	=15-	=15-	=15-	=15-	=15-
4A\	.	4A\	.	8cc\	8r	8r
.	.	.	.	8cc\	8cc\	8A\
4G\	6	4G\	6	8ee\	4b/	4G\
.	.	.	.	8gg\	.	.
4F\	.	4F\	.	8aa\	8a/	8F\
.	.	.	.	8aa\	8a/	8F\
!	!	!	!	!LO:TX:t=P:problem:kreska pseudotaktowa	!	!LO:TX:t=P:problem:kreska pseudotaktowa
4E\	6	4E\	6	4gg\	8cc\	4E\
!	!	!	!	!	!LO:TX:t=P:problem:kreska pseudotaktowa	!
.	.	.	.	.	8ee\	.
=16-	=16-	=16-	=16-	=16-	=16-	=16-
4D/	.	4D/	.	8ff\	8ff\	4D/
.	.	.	.	8a/	8ff\	.
4C/	.	4C/	.	8cc\	4ee\	4r
.	.	.	.	8ee\	.	.
4AA/	.	4AA/	.	8aa\	8r	8r
.	.	.	.	8cc\	8ee\	16E\
.	.	.	.	.	.	16F\
!LO:TX:t=P:problem:kreska pseudotaktowa	!	!LO:TX:t=P:problem:kreska pseudotaktowa	!	!	!LO:TX:t=P:problem:kreska pseudotaktowa	!
4BB/	.	4BB/	.	4b/	4dd\	8G\
!	!	!	!	!	!	!LO:TX:t=P:problem:kreska pseudotaktowa
.	.	.	.	.	.	8BB/
*	*	*	*	*custos:a	*	*
!	!	!	!	!LO:LB:g=original	!	!
=17-	=17-	=17-	=17-	=17-	=17-	=17-
4C/	6	4C/	6	4a/	4cc\	8C/
.	.	.	.	.	.	16BB/
.	.	.	.	.	.	16C/
4D/	#	4D/	#	4r	4r	8D/
.	.	.	.	.	.	8FF#X/
4GG/	.	4GG/	.	8r	2r	8GG/
.	.	.	.	8gg\	.	8GG/
4BB/	5	4BB/	5	4ff#X\	.	8BB/
!	!	!	!	!	!	!LO:TX:t=P:problem:kreska pseudotaktowa
.	.	.	.	.	.	8D/
=18-	=18-	=18-	=18-	=18-	=18-	=18-
4E\	5	4E\	5	4ee\	8r	8E\
.	.	.	.	.	8g/	8E\
4D/	6	4D/	6	4r	8b/	4D/
.	.	.	.	.	8dd\	.
4C/	.	4C/	.	8r	8ee\	4C/
.	.	.	.	8g/	8ee\	.
!LO:TX:t=P:problem:kreska pseudotaktowa	!	!LO:TX:t=P:problem:kreska pseudotaktowa	!	!	!	!
4BB/	.	4BB/	.	8b/	4dd\	4r
!	!	!	!	!LO:TX:t=P:problem:kreska pseudotaktowa	!	!
.	.	.	.	8dd\	.	.
*	*	*	*	*	*	*custos:C
!	!	!	!	!	!	!LO:LB:g=original
=19-	=19-	=19-	=19-	=19-	=19-	=19-
8AA/	.	8AA/	.	8ee\	4cc\	8r
8C/	.	8C/	.	8cc\	.	8C/
8E\	.	8E\	.	4b/	4r	8E\
8G\	.	8G\	.	.	.	8G\
4A\	.	4A\	.	8a/	8r	8A\
.	.	.	.	16cc\	16ee\	8A\
.	.	.	.	16dd\	16ff\	.
!	!	!	!	!	!	!LO:TX:t=P:problem:kreska pseudotaktowa
4G\	6	4G\	6	8ee\	8gg\	4G\
!	!	!	!	!LO:TX:t=P:problem:kreska pseudotaktowa	!LO:TX:t=P:problem:kreska pseudotaktowa	!
.	.	.	.	8g/	8b/	.
=20-	=20-	=20-	=20-	=20-	=20-	=20-
4F\	.	4F\	.	4a/	8cc\	4F\
.	.	.	.	.	16b/	.
.	.	.	.	.	16cc\	.
4D/	#	4D/	#	4r	8dd\	4r
.	.	.	.	.	8f#X/	.
*	*	*	*	*	*custos:g	*
!	!	!	!	!	!LO:LB:g=original	!
4E\	.	4E\	.	8r	8g/	8r
.	.	.	.	8ee\	8g/	8E\
!LO:TX:t=P:problem:kreska pseudotaktowa	!	!LO:TX:t=P:problem:kreska pseudotaktowa	!	!	!	!
4G\	.	4G\	.	4dd\	8b/	8G\
!	!	!	!	!	!LO:TX:t=P:problem:kreska pseudotaktowa	!
.	.	.	.	.	8dd\	8B\
=21-	=21-	=21-	=21-	=21-	=21-	=21-
4c\	.	4c\	.	8cc\	8ee\	8c\
.	.	.	.	8e/	8ee\	8c\
4B\	6	4B\	6	8g/	4dd\	4B\
.	.	.	.	8b/	.	.
4A\	.	4A\	.	4cc\	8cc\	8A\
.	.	.	.	.	16cc\	16A\
.	.	.	.	.	16dd\	16B\
!	!	!	!	!LO:TX:t=P:problem:kreska pseudotaktowa	!	!
4E\	.	4E\	.	4r	8ee\	8c\
!	!	!	!	!	!LO:TX:t=P:problem:kreska pseudotaktowa	!LO:TX:t=P:problem:kreska pseudotaktowa
.	.	.	.	.	8g/	8E\
=22-	=22-	=22-	=22-	=22-	=22-	=22-
8F\	.	8F\	.	8r	8a/	8F\
16E\	.	16E\	.	8ee\	16g/	16E\
16F\	.	16F\	.	.	16a/	16F\
4G\	.	4G\	.	4dd\	4b/	8G\
.	.	.	.	.	.	8BB/
*custos:C	*	*custos:C	*	*	*	*
!LO:LB:g=original	!	!LO:LB:g=original	!	!	!	!
8C/	.	8C/	.	8cc\	8r	8C/
8E\	.	8E\	.	8cc\	8ee\	16E\
.	.	.	.	.	.	16F\
!	!	!	!	!LO:TX:t=P:problem:kreska pseudotaktowa	!LO:TX:t=P:problem:kreska pseudotaktowa	!
8G\	.	8G\	.	4b/	4dd\	8G\
!LO:TX:t=P:problem:kreska pseudotaktowa	!	!LO:TX:t=P:problem:kreska pseudotaktowa	!	!	!	!LO:TX:t=P:problem:kreska pseudotaktowa
8BB/	.	8BB/	.	.	.	8BB/
=23-	=23-	=23-	=23-	=23-	=23-	=23-
!	!	!	!	!	!LO:TX:b:t=G	!
8C/	.	8C/	.	8a/	8cc\	8C/
16BB/	.	16BB/	.	8b/	8dd\	16BB/
16C/	.	16C/	.	.	.	16C/
4D/	#	4D/	#	4f#X/	4a/	8D/
.	.	.	.	.	.	8DD/
4GG/	.	4GG/	.	8g/	4g/	4GG/
.	.	.	.	8gg\	.	.
!LO:TX:t=P:problem:kreska pseudotaktowa	!	!LO:TX:t=P:problem:kreska pseudotaktowa	!	!	!	!LO:TX:t=P:problem:kreska pseudotaktowa
4DD/	#	4DD/	#	4ff#X\	16b/	4r
.	.	.	.	.	16cc\	.
.	.	.	.	.	16dd\	.
!	!	!	!	!	!LO:TX:t=P:problem:kreska pseudotaktowa	!
.	.	.	.	.	16f#X/	.
*	*	*	*	*custos:ee	*	*
!	!	!	!	!LO:LB:g=original	!	!
=24-	=24-	=24-	=24-	=24-	=24-	=24-
8GG/	.	8GG/	.	4ee\	4g/	8r
8E\	.	8E\	.	.	.	16E\
.	.	.	.	.	.	16F\
4BB/	.	4BB/	.	4r	4r	8G\
.	.	.	.	.	.	8BB/
4C/	.	4C/	.	8r	2r	4C/
.	.	.	.	16ee\	.	.
.	.	.	.	16ffny\	.	.
4GG/	.	4GG/	.	8gg\	.	4r
!	!	!	!	!LO:TX:t=P:problem:kreska pseudotaktowa	!	!
.	.	.	.	8b/	.	.
*	*	*	*	*	*custos:gg	*custos:E
!	!	!	!	!	!LO:PB:g=original	!LO:LB:g=original
=25-	=25-	=25-	=25-	=25-	=25-	=25-
4AA/	.	4AA/	.	8cc\	2r	2r
.	.	.	.	16b/	.	.
.	.	.	.	16cc\	.	.
4BB/	5	4BB/	5	8dd\	.	.
.	.	.	.	8f#X/	.	.
4E\	.	4E\	.	8g/	8r	8r
.	.	.	.	8g/	8gg\	8E\
!LO:TX:t=P:problem:kreska pseudotaktowa	!	!LO:TX:t=P:problem:kreska pseudotaktowa	!	!	!	!LO:TX:t=P:problem:kreska pseudotaktowa
4D/	.	4D/	.	8b/	4ff\	4D/
!	!	!	!	!LO:TX:t=P:problem:kreska pseudotaktowa	!	!
.	.	.	.	8dd\	.	.
=26-	=26-	=26-	=26-	=26-	=26-	=26-
4C/	.	4C/	.	8ee\	4ee\	8C/
.	.	.	.	8cc\	.	8C/
8E\	.	8E\	.	4b/	4r	8E\
8G\	.	8G\	.	.	.	8G\
4A\	.	4A\	.	8a/	8r	8A\
.	.	.	.	16cc\	16ee\	8A\
.	.	.	.	16dd\	16ff\	.
!LO:TX:t=P:problem:kreska pseudotaktowa	!	!LO:TX:t=P:problem:kreska pseudotaktowa	!	!	!	!LO:TX:t=P:problem:kreska pseudotaktowa
4G\	6	4G\	6	8ee\	8gg\	4G\
!	!	!	!	!LO:TX:t=P:problem:kreska pseudotaktowa	!LO:TX:t=P:problem:kreska pseudotaktowa	!
.	.	.	.	8g/	8b/	.
=27-	=27-	=27-	=27-	=27-	=27-	=27-
4F\	.	4F\	.	8a/	4cc\	8F\
.	.	.	.	8ff\	.	16F\
.	.	.	.	.	.	16G\
8A\	.	8A\	.	4ee\	4r	8A\
8C/	.	8C/	.	.	.	8C/
8D/	.	8D/	.	8dd\	8r	8D/
16C/	.	16C/	.	8r	8cc\	16C/
16D/	.	16D/	.	.	.	16D/
!LO:TX:t=P:problem:kreska pseudotaktowa	!	!LO:TX:t=P:problem:kreska pseudotaktowa	!	!LO:TX:t=P:problem:kreska pseudotaktowa	!LO:TX:t=P:problem:kreska pseudotaktowa	!
4E\	#	4E\	#	4r	4b/	8E\
!	!	!	!	!	!	!LO:TX:t=P:problem:kreska pseudotaktowa
.	.	.	.	.	.	8GG#X/
=28-	=28-	=28-	=28-	=28-	=28-	=28-
4A\	.	4A\	.	8r	4a/	8AA/
.	.	.	.	16cc\	.	16A\
.	.	.	.	16dd\	.	16B\
4E\	.	4E\	.	8ee\	4r	8c\
.	.	.	.	8g/	.	8E\
4F\	.	4F\	.	8a/	8r	8F\
.	.	.	.	8a/	16aa\	8F\
.	.	.	.	.	16bb\	.
!LO:TX:t=P:problem:kreska pseudotaktowa	!	!LO:TX:t=P:problem:kreska pseudotaktowa	!	!LO:TX:t=P:problem:kreska pseudotaktowa	!	!LO:TX:t=P:problem:kreska pseudotaktowa
4C/	.	4C/	.	4g/	8ccc\	4E\
!	!	!	!	!	!LO:TX:t=P:problem:kreska pseudotaktowa	!
.	.	.	.	.	8ee\	.
=29-	=29-	=29-	=29-	=29-	=29-	=29-
4D/	.	4D/	.	4fny/	8ff\	4D/
.	.	.	.	.	16ee\	.
.	.	.	.	.	16ff\	.
4E\	-	4E\	-	4r	8gg\	4r
.	.	.	.	.	8b/	.
*	*	*	*	*custos:ee	*	*
!	!	!	!	!LO:LB:g=original	!	!
8A\	.	8A\	.	8r	8cc\	8r
8c\	.	8c\	.	16ee\	8e/	8c\
.	.	.	.	16ff\	.	.
!	!	!	!	!	!LO:TX:t=P:problem:kreska pseudotaktowa	!
4B\	6	4B\	6	8gg\	4d/	4B\
!	!	!	!	!LO:TX:t=P:problem:kreska pseudotaktowa	!	!
.	.	.	.	8b/	.	.
*custos:A	*	*custos:A	*	*	*	*custos:A
!LO:LB:g=original	!	!LO:LB:g=original	!	!	!	!LO:LB:g=original
=30-	=30-	=30-	=30-	=30-	=30-	=30-
4A\	.	4A\	.	8cc\	8c/	8A\
.	.	.	.	8cc\	16cc\	8A\
.	.	.	.	.	16dd\	.
4G\	6	4G\	6	4b/	8ee\	4G\
.	.	.	.	.	8g/	.
4F\	.	4F\	.	8a/	8a/	8F\
.	.	.	.	16cc\	8aa\	8F\
.	.	.	.	16dd\	.	.
!	!	!	!	!	!LO:TX:t=P:problem:kreska pseudotaktowa	!LO:TX:t=P:problem:kreska pseudotaktowa
4E\	.	4E\	.	8ee\	4gg\	4E\
!	!	!	!	!LO:TX:t=P:problem:kreska pseudotaktowa	!	!
.	.	.	.	8g/	.	.
=31-	=31-	=31-	=31-	=31-	=31-	=31-
4D/	.	4D/	.	8a/	8ff\	8D/
.	.	.	.	8aa\	8ff\	16A\
.	.	.	.	.	.	16B\
4E\	.	4E\	.	4gg\	4ee\	8c\
.	.	.	.	.	.	8E\
4F\	6	4F\	6	4ff\	4dd\	8F\
.	.	.	.	.	.	16E\
.	.	.	.	.	.	16F\
!LO:TX:t=P:problem:kreska pseudotaktowa	!	!LO:TX:t=P:problem:kreska pseudotaktowa	!	!LO:TX:t=P:problem:kreska pseudotaktowa	!	!
4G\	.	4G\	.	4r	4r	8G\
!	!	!	!	!	!	!LO:TX:t=P:problem:kreska pseudotaktowa
.	.	.	.	.	.	8BB/
*	*	*	*	*	*custos:aa	*
!	!	!	!	!	!LO:LB:g=original	!
=32-	=32-	=32-	=32-	=32-	=32-	=32-
4.C/	.	4.C/	.	8r	2r	8C/
.	.	.	.	8e/	.	16C/
.	.	.	.	.	.	16D/
.	.	.	.	8g/	.	8E\
8GG/	.	8GG/	.	8b/	.	8GGny/
4AA/	.	4AA/	.	4cc\	8r	8AA/
.	.	.	.	.	8aa\	8AA/
!	!	!	!	!LO:TX:t=P:problem:kreska pseudotaktowa	!LO:TX:t=P:problem:kreska pseudotaktowa	!
8C/	.	8C/	.	4r	4gg\	8C/
!LO:TX:t=P:problem:kreska pseudotaktowa	!	!LO:TX:t=P:problem:kreska pseudotaktowa	!	!	!	!LO:TX:t=P:problem:kreska pseudotaktowa
8E\	.	8E\	.	.	.	8E\
=33-	=33-	=33-	=33-	=33-	=33-	=33-
4F\	.	4F\	.	8r	4ff\	8F\
.	.	.	.	8a/	.	8F\
4E\	.	4E\	.	8cc\	4r	4E\
.	.	.	.	8ee\	.	.
4D/	.	4D/	.	8ff\	8r	8D/
.	.	.	.	16f/	16a/	8D/
.	.	.	.	16g/	16b/	.
!	!	!	!	!	!	!LO:TX:t=P:problem:kreska pseudotaktowa
4C/	6	4C/	6	8a/	8cc\	4C/
!	!	!	!	!LO:TX:t=P:problem:kreska pseudotaktowa	!LO:TX:t=P:problem:kreska pseudotaktowa	!
.	.	.	.	8d/	8e/	.
=34-	=34-	=34-	=34-	=34-	=34-	=34-
4BB-X/	.	4BB-X/	.	4e/	8fny/	8BB-X/
.	.	.	.	.	8dd\	16D/
.	.	.	.	.	.	16E\
4AA/	6	4AA/	6	4r	4cc\	8F\
.	.	.	.	.	.	8AA/
*	*	*	*	*	*	*custos:BB-
!	!	!	!	!	!	!LO:LB:g=original
8BB-X/	.	8BB-X/	.	8r	8b-X/	8BB-/
16AA/	.	16AA/	.	8f/	8cc\	16AA/
16BB-/	.	16BB-/	.	.	.	16BB-/
!	!	!	!	!LO:TX:t=P:problem:kreska pseudotaktowa	!	!
!LO:TX:t=P:problem:kreska pseudotaktowa	!	!LO:TX:t=P:problem:kreska pseudotaktowa	!	!	!LO:TX:t=P:problem:kreska pseudotaktowa	!
4C/	.	4C/	.	4e/	4g/	8C/
.	.	.	.	.	.	8CC/
*	*	*	*	*custos:f	*	*
!	!	!	!	!LO:LB:g=original	!	!
=35-	=35-	=35-	=35-	=35-	=35-	=35-
4F\	.	4F\	.	4f/	4f/	8FFny/
.	.	.	.	.	.	16F\
.	.	.	.	.	.	16G\
4C/	6	4C/	6	4r	4r	8A\
.	.	.	.	.	.	8C/
8D/	.	8D/	.	8r	8r	8D/
16C/	.	16C/	.	8a/	8cc\	16C/
16D/	.	16D/	.	.	.	16D/
!	!	!	!	!LO:TX:t=P:problem:kreska pseudotaktowa	!	!
4E\	#	4E\	#	4g#X/	4bny/	8E\
!	!	!	!	!	!	!LO:TX:t=P:problem:kreska pseudotaktowa
.	.	.	.	.	.	8EE/
=36-	=36-	=36-	=36-	=36-	=36-	=36-
4AA/	.	4AA/	.	4a/	4a/	8AA/
.	.	.	.	.	.	16A\
.	.	.	.	.	.	16B\
4E\	6	4E\	6	4r	4r	8c\
.	.	.	.	.	.	8E\
8F\	.	8F\	.	8r	8r	8F\
16E\	.	16E\	.	8cc\	8ee\	16E\
16F\	.	16F\	.	.	.	16F\
!LO:TX:t=P:problem:kreska pseudotaktowa	!	!LO:TX:t=P:problem:kreska pseudotaktowa	!	!LO:TX:t=P:problem:kreska pseudotaktowa	!LO:TX:t=P:problem:kreska pseudotaktowa	!
4G\	.	4G\	.	4b/	4dd\	8G\
!	!	!	!	!	!	!LO:TX:t=P:problem:kreska pseudotaktowa
.	.	.	.	.	.	8GG/
=37-	=37-	=37-	=37-	=37-	=37-	=37-
4.C/	.	4.C/	.	8cc\	8cc\	4C/
.	.	.	.	16cc\	16ee\	.
.	.	.	.	16dd\	16ff\	.
.	.	.	.	8ee\	8gg\	4r
8E\	#	8E\	#	8g#X/	8b/	.
4AA/	.	4AA/	.	8a/	8cc\	8r
.	.	.	.	8a/	8cc\	8AA/
!	!	!	!	!LO:TX:t=P:problem:kreska pseudotaktowa	!LO:TX:t=P:problem:kreska pseudotaktowa	!LO:TX:t=P:problem:kreska pseudotaktowa
4E\	#	4E\	#	4g#X/	4b/	4E\
*custos:AA	*	*custos:AA	*	*	*	*
!LO:LB:g=original	!	!LO:LB:g=original	!	!	!	!
=38-	=38-	=38-	=38-	=38-	=38-	=38-
4.AA/	.	4.AA/	.	4a/	4a/	8AA/
.	.	.	.	.	.	16A\
.	.	.	.	.	.	16B\
.	.	.	.	4r	4r	8c\
8E\	.	8E\	.	.	.	8E\
4.F\	.	4.F\	.	8r	8r	4F\
.	.	.	.	16ff\	16aa\	.
.	.	.	.	16gg\	16bb\	.
!	!	!	!	!	!	!LO:TX:t=P:problem:kreska pseudotaktowa
.	.	.	.	8aa\	8ccc\	4r
!LO:TX:t=P:problem:kreska pseudotaktowa	!	!LO:TX:t=P:problem:kreska pseudotaktowa	!	!LO:TX:t=P:problem:kreska pseudotaktowa	!LO:TX:t=P:problem:kreska pseudotaktowa	!
8A\	#	8A\	#	8cc#X\	8ee\	.
=39-	=39-	=39-	=39-	=39-	=39-	=39-
4D/	.	4D/	.	8dd\	8ff\	8r
.	.	.	.	8dd\	8ff\	8D/
4A\	#	4A\	#	4cc#X\	4ee\	4A\
*	*	*	*	*	*custos:dd	*custos:D
!	!	!	!	!	!LO:LB:g=original	!LO:LB:g=original
4D/	.	4D/	.	4dd\	4dd\	8D/
.	.	.	.	.	.	16A\
.	.	.	.	.	.	16B\
!	!	!	!	!LO:TX:t=P:problem:kreska pseudotaktowa	!LO:TX:t=P:problem:kreska pseudotaktowa	!
4E\	6	4E\	6	4r	4r	8c\
!	!	!	!	!	!	!LO:TX:t=P:problem:kreska pseudotaktowa
.	.	.	.	.	.	8E\
=40-	=40-	=40-	=40-	=40-	=40-	=40-
4.F\	.	4.F\	.	8r	2r	4F\
.	.	.	.	16dd\	.	.
.	.	.	.	16ee\	.	.
.	.	.	.	8ff\	.	8r
8F#X\	.	8F#X\	.	8a/	.	8F#X\
*	*	*	*	*custos:b	*	*
!	!	!	!	!LO:LB:g=original	!	!
2G\	.	2G\	.	4b/	8r	2G\
.	.	.	.	.	16ee\	.
.	.	.	.	.	16ff\	.
!	!	!	!	!LO:TX:t=P:problem:kreska pseudotaktowa	!	!
.	.	.	.	4r	8gg\	.
!	!	!	!	!	!LO:TX:t=P:problem:kreska pseudotaktowa	!
.	.	.	.	.	8b/	.
=41-	=41-	=41-	=41-	=41-	=41-	=41-
!	!	!	!	!	!LO:TX:t=P:problem:moim zdaniem ktoś pomylił kreskę pseudotaktową z pauzą ćwierćnutową	!
!	!	!	!	!	!LO:TX:t=P:problem:kreska pseudotaktowa	!
4.C/	.	4.C/	.	2r	4b\	8r
.	.	.	.	.	.	16C/
.	.	.	.	.	.	16D/
.	.	.	.	.	4ryy	8E\
8GG#X/	.	8GG#X/	.	.	.	8GG#X/
2AA/	.	2AA/	.	8r	8r	2AA/
.	.	.	.	16a/	16cc\	.
.	.	.	.	16b/	16dd\	.
.	.	.	.	8ccny\	8ee\	.
!	!	!	!	!LO:TX:t=P:problem:kreska pseudotaktowa	!	!
.	.	.	.	8g#X/	8b/	.
=42-	=42-	=42-	=42-	=42-	=42-	=42-
4.AA/	.	4.AA/	.	8a/	2cc\	8r
.	.	.	.	16cc\	.	16A\
.	.	.	.	16dd\	.	16B\
.	.	.	.	8ee\	.	8c\
8E\	.	8E\	.	8g#X/	.	8E\
2Fny\	6	2Fny\	6	1a	8r	2Fny\
.	.	.	.	.	16dd\	.
.	.	.	.	.	16ee\	.
.	.	.	.	.	8ff\	.
.	.	.	.	.	8a/	.
=43-	=43-	=43-	=43-	=43-	=43-	=43-
!LO:TX:t=P:problem:kreska pseudotaktowa	!	!LO:TX:t=P:problem:kreska pseudotaktowa	!	!	!	!LO:TX:t=P:problem:kreska pseudotaktowa
1E	6:5 4#r	1E	6:5 4#r	.	2cc\	1E
!	!	!	!	!LO:TX:t=P:problem:kreska pseudotaktowa	!LO:TX:t=P:problem:kreska pseudotaktowa	!
.	.	.	.	2g#X/	2b/	.
=44-	=44-	=44-	=44-	=44-	=44-	=44-
!LO:TX:b:t=adagio.	!	!LO:TX:b:t=adagio.	!	!	!LO:TX:b:t=adagio.	!
4AA/	.	4AA/	.	8.a/	8.cc\	8r
!	!	!	!	!	!	!LO:TX:b:t=adagio.
.	.	.	.	.	.	8AA/
.	.	.	.	32gny/	32b/	.
.	.	.	.	32f/	32a/	.
4C/	.	4C/	.	8e/	8g/	4C/
.	.	.	.	8e/	8g/	.
4C/	.	4C/	.	8.cc\	8.ee\	8r
.	.	.	.	.	.	8C/
.	.	.	.	32b/	32dd\	.
.	.	.	.	32a/	32cc\	.
!LO:TX:t=P:problem:kreska pseudotaktowa	!	!LO:TX:t=P:problem:kreska pseudotaktowa	!	!	!	!LO:TX:t=P:problem:kreska pseudotaktowa
4E\	.	4E\	.	8g/	8b/	4E\
!	!	!	!	!LO:TX:t=P:problem:kreska pseudotaktowa	!LO:TX:t=P:problem:kreska pseudotaktowa	!
.	.	.	.	8g/	8b/	.
=45-	=45-	=45-	=45-	=45-	=45-	=45-
4E\	.	4E\	.	8.ee\	8.gg\	8r
.	.	.	.	.	.	8E\
.	.	.	.	32dd\	32ff\	.
.	.	.	.	32cc\	32ee\	.
4G\	.	4G\	.	8b/	8dd\	4G\
.	.	.	.	8b/	8dd\	.
*	*	*	*	*custos:gg	*	*
!	!	!	!	!LO:LB:g=original	!	!
4GGny/	.	4GGny/	.	8.gg\	8.bb\	8.GGny/
.	.	.	.	32ff#X\	32aa\	16AA/
.	.	.	.	32ee\	32gg\	.
*	*	*	*	*	*custos:ff#	*
!	!	!	!	!	!LO:LB:g=original	!
8BBny/	#	8BBny/	#	8dd#X\	8ff#X\	8BBny/
!	!	!	!	!	!LO:TX:t=P:problem:kreska pseudotaktowa	!
8EE/	.	8EE/	.	8ee\	8gg\	8EE/
*	*	*	*	*	*	*custos:BB
!	!	!	!	!	!	!LO:LB:g=original
=46-	=46-	=46-	=46-	=46-	=46-	=46-
4BB/	4#r	4BB/	4#r	8.ee\	8.ff#X\	8.BB/
.	.	.	.	16dd#X\	16ff#\	16BB/
4EE/	.	4EE/	.	4ee\	4ee\	4EE/
!LO:TX:t=P:problem:kreska pseudotaktowa	!	!LO:TX:t=P:problem:kreska pseudotaktowa	!	!LO:TX:t=P:problem:kreska pseudotaktowa	!LO:TX:t=P:problem:kreska pseudotaktowa	!LO:TX:t=P:problem:kreska pseudotaktowa
2r	.	2r	.	2r	2r	2r
=47-	=47-	=47-	=47-	=47-	=47-	=47-
4C/	.	4C/	.	8r	8r	8.C/
.	.	.	.	8e/	8g/	.
.	.	.	.	.	.	32BB/
.	.	.	.	.	.	32AA/
4GG/	.	4GG/	.	4g/	4b/	8GG/
.	.	.	.	.	.	8GG/
4E\	.	4E\	.	8r	8r	8.E\
.	.	.	.	8g/	8b/	.
.	.	.	.	.	.	32D/
.	.	.	.	.	.	32C/
4BB/	.	4BB/	.	4b/	4dd\	8BB/
!	!	!	!	!	!	!LO:TX:t=P:problem:kreska pseudotaktowa
.	.	.	.	.	.	8BB/
=48-	=48-	=48-	=48-	=48-	=48-	=48-
4G\	.	4G\	.	8r	8r	8.G\
.	.	.	.	8b/	8dd\	.
.	.	.	.	.	.	32F\
.	.	.	.	.	.	32E\
4D/	.	4D/	.	4ddny\	4ffny\	8D/
.	.	.	.	.	.	8D/
4A\	.	4A\	.	8cc\	8ee\	8.A\
.	.	.	.	8dd\	8ff\	.
.	.	.	.	.	.	32G\
.	.	.	.	.	.	32F\
4E\	.	4E\	.	8.ee\	8.gg\	8.E\
.	.	.	.	32dd\	32ff\	16F\
!	!	!	!	!LO:TX:t=P:problem:kreska pseudotaktowa	!LO:TX:t=P:problem:kreska pseudotaktowa	!
.	.	.	.	32cc\	32ee\	.
*custos:G	*	*custos:G	*	*	*	*
!LO:LB:g=original	!	!LO:LB:g=original	!	!	!	!
=49-	=49-	=49-	=49-	=49-	=49-	=49-
4G\	.	4G\	.	8.b/	8.dd\	8.G\
.	.	.	.	16b/	16dd\	16G\
4C/	.	4C/	.	4cc\	4cc\	4C/
!LO:TX:t=P:problem:kreska pseudotaktowa	!	!LO:TX:t=P:problem:kreska pseudotaktowa	!	!	!LO:TX:t=P:problem:kreska pseudotaktowa	!LO:TX:t=P:problem:kreska pseudotaktowa
2r	.	2r	.	2r	2r	2r
*	*	*	*	*custos:g	*	*
!	!	!	!	!LO:LB:g=original	!	!
=50-	=50-	=50-	=50-	=50-	=50-	=50-
4C/	.	4C/	.	8r	8r	8.C/
.	.	.	.	8g/	8e/	.
.	.	.	.	.	.	32BB/
.	.	.	.	.	.	32AA/
4GG/	.	4GG/	.	4b/	4g/	8GG/
.	.	.	.	.	.	8GG/
*	*	*	*	*	*	*custos:BB
!	!	!	!	!	!LO:TX:t=P:problem:kreska pseudotaktowa	!LO:LB:g=original
4BB/	.	4BB/	.	8.dd\	2r	8r
.	.	.	.	.	.	8BB/
.	.	.	.	32cc\	.	.
.	.	.	.	32b/	.	.
!	!	!	!	!	!	!LO:TX:t=P:problem:kreska pseudotaktowa
4D/	.	4D/	.	8a/	.	4D/
!	!	!	!	!LO:TX:t=P:problem:kreska pseudotaktowa	!	!
.	.	.	.	8a/	.	.
=51-	=51-	=51-	=51-	=51-	=51-	=51-
4F\	.	4F\	.	8r	8r	8.F\
.	.	.	.	8a/	8cc\	.
.	.	.	.	.	.	32E\
.	.	.	.	.	.	32D/
4C/	.	4C/	.	4cc\	4ee\	8C/
.	.	.	.	.	.	8C/
4E\	.	4E\	.	4r	8.gg\	8r
.	.	.	.	.	.	8E\
.	.	.	.	.	32ff\	.
.	.	.	.	.	32ee\	.
!LO:TX:t=P:problem:kreska pseudotaktowa	!	!LO:TX:t=P:problem:kreska pseudotaktowa	!	!	!	!LO:TX:t=P:problem:kreska pseudotaktowa
4G\	.	4G\	.	8r	8dd\	4G\
!	!	!	!	!LO:TX:t=P:problem:kreska pseudotaktowa	!	!
.	.	.	.	8b/	8dd\	.
=52-	=52-	=52-	=52-	=52-	=52-	=52-
4D/	.	4D/	.	8dd\	8r	8.D/
.	.	.	.	8a/	8ff\	.
.	.	.	.	.	.	32C/
.	.	.	.	.	.	32BB/
4AA/	.	4AA/	.	4cc\	8aa\	8AA/
.	.	.	.	.	8cc\	8AA/
*	*	*	*	*	*custos:ee	*
!	!	!	!	!	!LO:LB:g=original	!
4C/	.	4C/	.	8.cc\	8.ee\	8r
.	.	.	.	.	.	8C/
.	.	.	.	32b/	32dd\	.
.	.	.	.	32a/	32cc\	.
8E\	.	8E\	.	8g#X/	8b/	8E\
8AA/	.	8AA/	.	8a/	8cc\	8AA/
=53-	=53-	=53-	=53-	=53-	=53-	=53-
2E\	4#r	2E\	4#r	4.a/	4.b/	4.EE/
.	.	.	.	8g#X/	8b/	8EE/
2AA/	.	2AA/	.	2a/	2a/	2AA/
=54-	=54-	=54-	=54-	=54-	=54-	=54-
*M3/2	*	*M3/2	*	*M3/2	*M3/2	*M3/2
2A\	.	2A\	.	00.r	1.r	00.r
2G\	6	2G\	6	.	.	.
2F\	6	2F\	6	.	.	.
=55-	=55-	=55-	=55-	=55-	=55-	=55-
2.E\	.	2.E\	.	.	4.ee\	.
.	.	.	.	.	8ff\	.
.	.	.	.	.	2gg\	.
4F\	.	4F\	.	.	.	.
!	!	!	!	!	!LO:TX:t=P:problem:kreska pseudotaktowa	!
2G\	.	2G\	.	.	2b/	.
=56-	=56-	=56-	=56-	=56-	=56-	=56-
2.C/	.	2.C/	.	.	4.cc\	.
.	.	.	.	.	8dd\	.
.	.	.	.	.	2ee\	.
4D/	.	4D/	.	.	.	.
!LO:TX:t=P:problem:kreska pseudotaktowa	!	!LO:TX:t=P:problem:kreska pseudotaktowa	!	!	!LO:TX:t=P:problem:kreska pseudotaktowa	!
2E\	.	2E\	.	.	2g/	.
=57-	=57-	=57-	=57-	=57-	=57-	=57-
2.BB/	.	2.BB/	.	.	4.b/	.
.	.	.	.	.	8cc\	.
.	.	.	.	.	2dd\	.
4C/	.	4C/	.	.	.	.
!	!	!	!	!	!LO:TX:t=P:problem:kreska pseudotaktowa	!
2D/	#	2D/	#	.	2f#X/	.
=58-	=58-	=58-	=58-	=58-	=58-	=58-
1.GG	.	1.GG	.	00.r	4g/	0.r
.	.	.	.	.	4dd\	.
.	.	.	.	.	4b/	.
.	.	.	.	.	4cc\	.
.	.	.	.	.	4dd\	.
!	!	!	!	!	!LO:TX:t=P:problem:kreska pseudotaktowa	!
.	.	.	.	.	4b/	.
=59-	=59-	=59-	=59-	=59-	=59-	=59-
2C/	.	2C/	.	.	4cc\	.
.	.	.	.	.	4ee\	.
2D/	6 5	2D/	6 5	.	2.b/	.
2E\	#	2E\	#	.	.	.
.	.	.	.	.	4b/	.
*	*	*	*	*	*	*custos:A
!	!	!	!	!	!	!LO:PB:g=original
=60-	=60-	=60-	=60-	=60-	=60-	=60-
1A	.	1A	.	.	1a	4.A\
.	.	.	.	.	.	8B\
.	.	.	.	.	.	2c\
2E\	.	2E\	.	.	2r	2E\
=61-	=61-	=61-	=61-	=61-	=61-	=61-
1F	.	1F	.	.	0.r	4.F\
.	.	.	.	.	.	8G\
.	.	.	.	.	.	2A\
2C/	.	2C/	.	.	.	2C/
*custos:E	*	*custos:E	*	*	*	*
!LO:LB:g=original	!	!LO:LB:g=original	!	!	!	!
=62-	=62-	=62-	=62-	=62-	=62-	=62-
1E	.	1E	.	0.r	.	4.E\
.	.	.	.	.	.	8F\
.	.	.	.	.	.	2G\
2BB/	.	2BB/	.	.	.	2BB/
=63-	=63-	=63-	=63-	=63-	=63-	=63-
1C	.	1C	.	.	4.ee\	4C/
.	.	.	.	.	.	4G\
.	.	.	.	.	8ff\	.
.	.	.	.	.	2gg\	4E\
.	.	.	.	.	.	4F\
*	*	*	*	*	*custos:b	*
!LO:TX:t=P:problem:kreska pseudotaktowa	!	!LO:TX:t=P:problem:kreska pseudotaktowa	!	!	!LO:LB:g=original	!
2E\	.	2E\	.	.	2b/	4G\
!	!	!	!	!	!	!LO:TX:t=P:problem:kreska pseudotaktowa
.	.	.	.	.	.	4E\
*	*	*	*	*custos:ee	*	*
!	!	!	!	!LO:PB:g=original	!	!
=64-	=64-	=64-	=64-	=64-	=64-	=64-
4A\	.	4A\	.	4.ee\	4cc\	4A\
4c\	.	4c\	.	.	4ee\	4c\
.	.	.	.	8ffny\	.	.
1G	.	1G	.	2gg\	2.dd\	2.G\
.	.	.	.	2b/	.	.
.	.	.	.	.	4dd\	4G\
=65-	=65-	=65-	=65-	=65-	=65-	=65-
2.C/	.	2.C/	.	4.cc\	1cc	1C
.	.	.	.	8dd\	.	.
.	.	.	.	2ee\	.	.
4D/	.	4D/	.	.	.	.
!LO:TX:t=P:problem:kreska pseudotaktowa	!	!LO:TX:t=P:problem:kreska pseudotaktowa	!	!	!	!
2E\	.	2E\	.	2gny/	2r	2r
=66-	=66-	=66-	=66-	=66-	=66-	=66-
2.BB/	.	2.BB/	.	4.b/	0.r	0.r
.	.	.	.	8cc\	.	.
.	.	.	.	2dd\	.	.
4C/	.	4C/	.	.	.	.
!	!	!	!	!LO:TX:t=P:problem:kreska pseudotaktowa	!	!
2D/	#	2D/	#	2f#X/	.	.
=67-	=67-	=67-	=67-	=67-	=67-	=67-
!LO:TX:t=P:problem:kreska pseudotaktowa	!	!LO:TX:t=P:problem:kreska pseudotaktowa	!	!	!	!
1.G	.	1.G	.	4g/	.	.
.	.	.	.	4dd\	.	.
.	.	.	.	4b/	.	.
.	.	.	.	4cc\	.	.
.	.	.	.	4dd\	.	.
.	.	.	.	4b/	.	.
=68-	=68-	=68-	=68-	=68-	=68-	=68-
2C/	.	2C/	.	4cc\	1.r	4.C/
.	.	.	.	4ee\	.	.
.	.	.	.	.	.	8D/
2E\	.	2E\	.	2.b/	.	2E\
2GG#X/	.	2GG#X/	.	.	.	2GG#X/
.	.	.	.	4b/	.	.
=69-	=69-	=69-	=69-	=69-	=69-	=69-
2AA/	.	2AA/	.	1a	4.cc\	4AA/
.	.	.	.	.	.	4E\
.	.	.	.	.	8dd\	.
2C/	.	2C/	.	.	2ee\	4C/
.	.	.	.	.	.	4D/
!LO:TX:t=P:problem:kreska pseudotaktowa	!	!LO:TX:t=P:problem:kreska pseudotaktowa	!	!LO:TX:t=P:problem:kreska pseudotaktowa	!LO:TX:t=P:problem:kreska pseudotaktowa	!
2E\	6	2E\	6	2r	2g/	4E\
!	!	!	!	!	!	!LO:TX:t=P:problem:kreska pseudotaktowa
.	.	.	.	.	.	4C/
=70-	=70-	=70-	=70-	=70-	=70-	=70-
1F	.	1F	.	4.ff\	4.a/	4D\
.	.	.	.	.	.	4c\
.	.	.	.	8gg\	8b/	.
.	.	.	.	2aa\	2cc\	4A\
.	.	.	.	.	.	4B\
2E\	6	2E\	6	2cc\	2e/	4c\
.	.	.	.	.	.	4E\
*	*	*	*	*	*	*custos:D
!	!	!	!	!	!	!LO:LB:g=original
=71-	=71-	=71-	=71-	=71-	=71-	=71-
1D	.	1D	.	4dd\	1fny	1D
.	.	.	.	4ff\	.	.
.	.	.	.	4a/	.	.
.	.	.	.	4b/	.	.
!	!	!	!	!	!LO:TX:t=P:problem:kreska pseudotaktowa	!
2C/	6	2C/	6	4cc\	2r	2r
.	.	.	.	4a/	.	.
=72-	=72-	=72-	=72-	=72-	=72-	=72-
2BB/	.	2BB/	.	4.b/	4.dd\	1.r
.	.	.	.	8cc\	8ee\	.
2FF#X/	6	2FF#X/	6	2dd\	2ff#X\	.
*	*	*	*	*custos:f#	*	*
!	!	!	!	!LO:LB:g=original	!	!
2AA/	#	2AA/	#	2f#X/	2a/	.
=73-	=73-	=73-	=73-	=73-	=73-	=73-
1GGny	.	1GGny	.	1g	1b	4.BB/
.	.	.	.	.	.	8C/
.	.	.	.	.	.	2D/
!LO:TX:t=P:problem:kreska pseudotaktowa	!	!LO:TX:t=P:problem:kreska pseudotaktowa	!	!	!LO:TX:t=P:problem:kreska pseudotaktowa	!
2FF#X/	.	2FF#X/	.	2r	2r	2FF#X/
=74-	=74-	=74-	=74-	=74-	=74-	=74-
1.GG	.	1.GG	.	1.r	0.r	4GGny/
.	.	.	.	.	.	4D/
.	.	.	.	.	.	4BB/
.	.	.	.	.	.	4C/
.	.	.	.	.	.	4D/
.	.	.	.	.	.	4BB/
=75-	=75-	=75-	=75-	=75-	=75-	=75-
1C	.	1C	.	4.ee\	.	1C
.	.	.	.	8ff\	.	.
.	.	.	.	2gg\	.	.
!	!	!	!	!	!	!LO:TX:t=P:problem:kreska pseudotaktowa
2G\	.	2G\	.	2b/	.	2r
=76-	=76-	=76-	=76-	=76-	=76-	=76-
1E	6:5	1E	6:5	4cc\	1.r	4.E\
.	.	.	.	4gg\	.	.
.	.	.	.	.	.	8F\
.	.	.	.	4ee\	.	2G\
.	.	.	.	4ff\	.	.
2BB/	.	2BB/	.	4gg\	.	2BB/
.	.	.	.	4dd\	.	.
=77-	=77-	=77-	=77-	=77-	=77-	=77-
1.C	.	1.C	.	1ee	4.cc\	4C/
.	.	.	.	.	.	4G\
.	.	.	.	.	8dd\	.
.	.	.	.	.	2ee\	4E\
.	.	.	.	.	.	4F\
!	!	!	!	!LO:TX:t=P:problem:kreska pseudotaktowa	!	!
.	.	.	.	2r	2g/	4G\
.	.	.	.	.	.	4E\
*custos:FF	*	*custos:FF	*	*	*	*
!LO:LB:g=original	!	!LO:LB:g=original	!	!	!	!
=78-	=78-	=78-	=78-	=78-	=78-	=78-
2FFny/	.	2FFny/	.	4a/	4ffny\	1F
.	.	.	.	4cc\	4gg\	.
2F\	.	2F\	.	4a/	2aa\	.
.	.	.	.	4b/	.	.
2E\	6	2E\	6	4cc\	2cc\	2r
.	.	.	.	4e/	.	.
=79-	=79-	=79-	=79-	=79-	=79-	=79-
1.D	-	1.D	-	1fny	4.dd\	4F\
.	.	.	.	.	.	4A\
.	.	.	.	.	8ee\	.
.	.	.	.	.	2ff\	4D/
.	.	.	.	.	.	4E\
!	!	!	!	!LO:TX:t=P:problem:kreska pseudotaktowa	!	!
.	.	.	.	2r	2a/	4F\
!	!	!	!	!	!	!LO:TX:t=P:problem:kreska pseudotaktowa
.	.	.	.	.	.	4D/
*	*	*	*	*	*custos:b	*
!	!	!	!	!	!LO:LB:g=original	!
=80-	=80-	=80-	=80-	=80-	=80-	=80-
1.G	.	1.G	.	1.r	4b/	1G
.	.	.	.	.	4dd\	.
.	.	.	.	.	4g/	.
.	.	.	.	.	4a/	.
.	.	.	.	.	4b/	2r
.	.	.	.	.	4g/	.
=81-	=81-	=81-	=81-	=81-	=81-	=81-
!	!	!	!	!	!	!LO:TX:t=P:problem:kreska pseudotaktowa
1E	.	1E	.	4.ee\	1cc	1.r
.	.	.	.	8ff\	.	.
.	.	.	.	2gg\	.	.
!LO:TX:t=P:problem:kreska pseudotaktowa	!	!LO:TX:t=P:problem:kreska pseudotaktowa	!	!	!LO:TX:t=P:problem:kreska pseudotaktowa	!
2D/	6	2D/	6	2b/	2r	.
=82-	=82-	=82-	=82-	=82-	=82-	=82-
1C	.	1C	.	4.cc\	4.ee\	4C/
.	.	.	.	.	.	4G\
.	.	.	.	8dd\	8ff\	.
.	.	.	.	2ee\	2gg\	4E\
.	.	.	.	.	.	4F\
2BB/	6	2BB/	6	2g/	2b/	4G\
.	.	.	.	.	.	4BB/
*	*	*	*	*	*	*custos:AA
!	!	!	!	!	!	!LO:LB:g=original
=83-	=83-	=83-	=83-	=83-	=83-	=83-
!	!	!	!	!LO:TX:t=P:problem:kreska pseudotaktowa	!	!
1AA	.	1AA	.	1a	4.cc\	4AA/
.	.	.	.	.	.	8A\
.	.	.	.	.	8dd\	8B\
.	.	.	.	.	2ee\	2c\
!	!	!	!	!	!LO:TX:t=P:problem:kreska pseudotaktowa	!LO:TX:t=P:problem:kreska pseudotaktowa
2E\	.	2E\	.	2ryy	2g/	2E\
=84-	=84-	=84-	=84-	=84-	=84-	=84-
1F	.	1F	.	4ff\	4a/	4.F\
.	.	.	.	4aa\	4cc\	.
.	.	.	.	.	.	8G\
.	.	.	.	4cc\	4a/	2A\
.	.	.	.	4dd\	4b/	.
2C/	.	2C/	.	4ee\	4cc\	2C/
.	.	.	.	4cc\	4a/	.
*	*	*	*	*custos:dd	*	*
!	!	!	!	!LO:LB:g=original	!	!
=85-	=85-	=85-	=85-	=85-	=85-	=85-
1.GG	.	1.GG	.	4dd\	1b	4G\
.	.	.	.	4b/	.	4D/
.	.	.	.	4g/	.	4BB/
.	.	.	.	4a/	.	4C/
!	!	!	!	!	!LO:TX:t=P:problem:kreska pseudotaktowa	!
.	.	.	.	4b/	2r	4D/
!	!	!	!	!	!	!LO:TX:t=P:problem:kreska pseudotaktowa
.	.	.	.	4b/	.	4GG/
=86-	=86-	=86-	=86-	=86-	=86-	=86-
1C	.	1C	.	1cc	4.ee\	4C/
.	.	.	.	.	.	4G\
.	.	.	.	.	8ff\	.
.	.	.	.	.	2gg\	4E\
.	.	.	.	.	.	4F\
!	!	!	!	!LO:TX:t=P:problem:kreska pseudotaktowa	!	!
2GG/	.	2GG/	.	2r	2b/	4G\
.	.	.	.	.	.	4GG/
=87-	=87-	=87-	=87-	=87-	=87-	=87-
1AA	.	1AA	.	4.cc\	1cc	4AA/
.	.	.	.	.	.	4E\
.	.	.	.	8dd\	.	.
.	.	.	.	2ee\	.	4C/
.	.	.	.	.	.	4D/
!LO:TX:t=P:problem:kreska pseudotaktowa	!	!LO:TX:t=P:problem:kreska pseudotaktowa	!	!	!	!
2E\	.	2E\	.	2g/	2r	4E\
!	!	!	!	!	!	!LO:TX:t=P:problem:kreska pseudotaktowa
.	.	.	.	.	.	4C/
=88-	=88-	=88-	=88-	=88-	=88-	=88-
1F	.	1F	.	4.a/	1.r	4.F\
.	.	.	.	8b/	.	8G\
.	.	.	.	2cc\	.	2A\
2C/	.	2C/	.	2e/	.	2C/
=89-	=89-	=89-	=89-	=89-	=89-	=89-
1.D	.	1.D	.	1f	4ff\	1D
.	.	.	.	.	4aa\	.
.	.	.	.	.	4dd\	.
.	.	.	.	.	4ee\	.
!	!	!	!	!LO:TX:t=P:problem:kreska pseudotaktowa	!	!LO:TX:t=P:problem:kreska pseudotaktowa
.	.	.	.	2r	4ff\	2r
.	.	.	.	.	4dd\	.
=90-	=90-	=90-	=90-	=90-	=90-	=90-
4AA/	.	4AA/	.	4.cc\	4.ee\	4AA/
4E\	.	4E\	.	.	.	4E\
.	.	.	.	8dd\	8ff\	.
4C/	.	4C/	.	2ee\	2gg\	4C/
4D/	.	4D/	.	.	.	4D/
2E\	#	2E\	#	2g#X/	2b/	4E\
.	.	.	.	.	.	4EE/
*	*	*	*	*	*custos:cc	*
!	!	!	!	!	!LO:LB:g=original	!
=91-	=91-	=91-	=91-	=91-	=91-	=91-
1AA	.	1AA	.	4a/	4.cc\	1AA
.	.	.	.	4ee\	.	.
.	.	.	.	.	8dd\	.
.	.	.	.	4cc\	2ee\	.
.	.	.	.	4dd\	.	.
2E\	#	2E\	#	4ee\	2g#X/	2r
!	!	!	!	!LO:TX:t=P:problem:kreska pseudotaktowa	!	!
.	.	.	.	4b/	.	.
*	*	*	*	*	*	*custos:AA
!	!	!	!	!	!	!LO:LB:g=original
=92-	=92-	=92-	=92-	=92-	=92-	=92-
1AA	.	1AA	.	1cc	4.a/	4AA/
.	.	.	.	.	.	4E\
.	.	.	.	.	8b/	.
.	.	.	.	.	2cc\	4C/
.	.	.	.	.	.	4D/
!LO:TX:t=P:problem:kreska pseudotaktowa	!	!LO:TX:t=P:problem:kreska pseudotaktowa	!	!	!LO:TX:t=P:problem:kreska pseudotaktowa	!
2C/	.	2C/	.	2r	2e/	4E\
.	.	.	.	.	.	4C/
=93-	=93-	=93-	=93-	=93-	=93-	=93-
1D	.	1D	.	4.ff\	4f/	1D
.	.	.	.	.	4dd\	.
.	.	.	.	8gg\	.	.
.	.	.	.	2aa\	4a/	.
.	.	.	.	.	4b/	.
2E\	6	2E\	6	2cc\	4cc\	2r
.	.	.	.	.	4gny/	.
=94-	=94-	=94-	=94-	=94-	=94-	=94-
1F	.	1F	.	4.aa\	1a	4.F\
.	.	.	.	8bb\	.	8G\
.	.	.	.	2ccc\	.	2A\
2C/	.	2C/	.	2ee\	2r	2C/
=95-	=95-	=95-	=95-	=95-	=95-	=95-
1E	.	1E	.	1.r	4.gg\	4.E\
.	.	.	.	.	8aa\	8F\
.	.	.	.	.	2bb\	2G\
!	!	!	!	!	!LO:TX:t=P:problem:kreska pseudotaktowa	!LO:TX:t=P:problem:kreska pseudotaktowa
2BB/	.	2BB/	.	.	2dd\	2BB/
*	*	*	*	*custos:ee	*	*
!	!	!	!	!LO:LB:g=original	!	!
=96-	=96-	=96-	=96-	=96-	=96-	=96-
1C	.	1C	.	4.ee\	1ee	4C/
.	.	.	.	.	.	4G\
.	.	.	.	8ff\	.	.
.	.	.	.	2gg\	.	4E\
.	.	.	.	.	.	4F\
2G\	.	2G\	.	2b/	2r	4G\
.	.	.	.	.	.	4E\
=97-	=97-	=97-	=97-	=97-	=97-	=97-
1.A	.	1.A	.	4cc\	4.aa\	1A
.	.	.	.	4ee\	.	.
.	.	.	.	.	8bb\	.
.	.	.	.	4a/	2ccc\	.
.	.	.	.	4b/	.	.
!	!	!	!	!	!	!LO:TX:t=P:problem:kreska pseudotaktowa
.	.	.	.	4cc\	2ee\	2r
!	!	!	!	!LO:TX:t=P:problem:kreska pseudotaktowa	!	!
.	.	.	.	4a/	.	.
*custos:F#	*	*custos:F#	*	*	*	*
!LO:LB:g=original	!	!LO:LB:g=original	!	!	!	!
=98-	=98-	=98-	=98-	=98-	=98-	=98-
1.F#X	.	1.F#X	.	4.dd\	4ff#X\	4D/
.	.	.	.	.	4ff#\	4A\
.	.	.	.	8ee\	.	.
.	.	.	.	2ff#X\	4dd\	4F#X\
.	.	.	.	.	4ee\	4G\
.	.	.	.	2a/	4ff#X\	4A\
.	.	.	.	.	4dd\	4F#X\
=99-	=99-	=99-	=99-	=99-	=99-	=99-
1G	.	1G	.	4.b/	0.r	4G\
.	.	.	.	.	.	4GG/
.	.	.	.	8cc\	.	.
.	.	.	.	2dd\	.	4BB/
.	.	.	.	.	.	4GG/
!	!	!	!	!LO:TX:t=P:problem:kreska pseudotaktowa	!	!
2D/	.	2D/	.	2f#X/	.	4D/
.	.	.	.	.	.	4DD/
*	*	*	*	*	*	*custos:GG
!	!	!	!	!	!	!LO:LB:g=original
=100-	=100-	=100-	=100-	=100-	=100-	=100-
!	!	!	!	!	!LO:TX:t=P:problem:kreska pseudotaktowa	!
1.GG	.	1.GG	.	1gny	.	4GG/
.	.	.	.	.	.	4D/
.	.	.	.	.	.	4BB/
.	.	.	.	.	.	4C/
.	.	.	.	2r	.	4D/
.	.	.	.	.	.	4GG/
=101-	=101-	=101-	=101-	=101-	=101-	=101-
1C	.	1C	.	4.cc\	4.ee\	1C
.	.	.	.	8dd\	8ffny\	.
.	.	.	.	2ee\	2gg\	.
!	!	!	!	!LO:TX:t=P:problem:kreska pseudotaktowa	!	!
2G\	.	2G\	.	2g/	2b/	2r
*	*	*	*	*	*custos:cc	*
!	!	!	!	!	!LO:LB:g=original	!
=102-	=102-	=102-	=102-	=102-	=102-	=102-
1.C	.	1.C	.	4r	4cc\	1.r
.	.	.	.	4ee\	4gg\	.
.	.	.	.	4cc\	4ee\	.
.	.	.	.	4dd\	4ff\	.
.	.	.	.	4ee\	4gg\	.
!	!	!	!	!	!LO:TX:t=P:problem:kreska pseudotaktowa	!
.	.	.	.	4cc\	4ee\	.
=103-	=103-	=103-	=103-	=103-	=103-	=103-
1AA	6	1AA	6	1ffny	1aa	4.A\
.	.	.	.	.	.	8B\
.	.	.	.	.	.	2c\
2E\	.	2E\	.	2r	2r	2E\
=104-	=104-	=104-	=104-	=104-	=104-	=104-
1Fny	.	1Fny	.	4a/	4.aa\	4.Fny\
.	.	.	.	4cc\	.	.
.	.	.	.	.	8bb\	8G\
.	.	.	.	4a/	2ccc\	2A\
.	.	.	.	4b/	.	.
2C/	.	2C/	.	4cc\	2ee\	2C/
.	.	.	.	4g/	.	.
*	*	*	*	*custos:dd	*	*
!	!	!	!	!LO:LB:g=original	!	!
=105-	=105-	=105-	=105-	=105-	=105-	=105-
1D	.	1D	.	4.dd\	4.ff\	1D
.	.	.	.	8ee\	8gg\	.
.	.	.	.	2ff\	2aa\	.
2A\	.	2A\	.	2a/	2cc\	2A\
=106-	=106-	=106-	=106-	=106-	=106-	=106-
1.E	5:6 4#	1.E	5:6 4#	4g#X/	4b/	1.E
.	.	.	.	4cc\	4ee\	.
.	.	.	.	4a/	4cc\	.
.	.	.	.	4b/	4dd\	.
.	.	.	.	4cc\	4ee\	.
.	.	.	.	4a/	4cc\	.
=107-	=107-	=107-	=107-	=107-	=107-	=107-
1.E	5 4#r	1.E	5 4#r	1a	1.b	1.E
.	.	.	.	2g#X/	.	.
=108-	=108-	=108-	=108-	=108-	=108-	=108-
1.AA	.	1.AA	.	1.a	1.a	1.AA
=109-	=109-	=109-	=109-	=109-	=109-	=109-
*M2/2	*	*M2/2	*	*M2/2	*M2/2	*M2/2
*met(C|)	*	*met(C|)	*	*met(C|)	*met(C|)	*met(C|)
1AA	.	1AA	.	2r	1r	2.AA/
.	.	.	.	2.ee\	.	.
.	.	.	.	.	.	4AA/
=110-	=110-	=110-	=110-	=110-	=110-	=110-
!LO:TX:t=P:problem:kreska pseudotaktowa	!	!LO:TX:t=P:problem:kreska pseudotaktowa	!	!	!	!
1D	9:8	1D	9:8	.	2.ff\	1D
.	.	.	.	4ee\	.	.
.	.	.	.	1dd	.	.
.	.	.	.	.	4ff\	.
=111-	=111-	=111-	=111-	=111-	=111-	=111-
2.E\	7:6	2.E\	7:6	.	1ee	2.E\
.	.	.	.	2.cc\	.	.
8A\	.	8A\	.	.	.	8A\
8G\	.	8G\	.	.	.	8G\
=112-	=112-	=112-	=112-	=112-	=112-	=112-
2F#X\	6 5	2F#X\	6 5	.	2.dd\	2F#X\
.	.	.	.	8dd\	.	.
.	.	.	.	8cc\	.	.
!LO:TX:t=P:problem:kreska pseudotaktowa	!	!LO:TX:t=P:problem:kreska pseudotaktowa	!	!	!	!
2G\	5:6	2G\	5:6	1b	.	2G\
.	.	.	.	.	8ee\	.
.	.	.	.	.	8dd\	.
=113-	=113-	=113-	=113-	=113-	=113-	=113-
2.C/	7:6	2.C/	7:6	.	1cc	2.C/
.	.	.	.	1a	.	.
4D/	.	4D/	.	.	.	4D/
=114-	=114-	=114-	=114-	=114-	=114-	=114-
1E	4#r	1E	4#r	.	1b	1E
.	.	.	.	2g#X/	.	.
=115-	=115-	=115-	=115-	=115-	=115-	=115-
0AA;	.	0AA;	.	0a;	0a;	0AA;
==	==	==	==	==	==	==
*-	*-	*-	*-	*-	*-	*-
!!!system-decoration: [(s1,s2)]s3,s4,s5
!!!ENC: Andrzej Gręziak
!!!END: 2022-11-13
!!!ENC: Natalia Wrzos
!!!END: 2022-12-02
!!!YEC: Copyright 2022 Narodowy Instytut Fryderyka Chopina (https://polishscores.org)
!!!YEM: License CC-BY-4.0 (https://creativecommons.org/licenses/by/4.0)
